latex_in_markdown/.watch-latex-md-images/5e0f411b1034db3caacaffdd3260fc00.svg

<ns0:svg xmlns:ns0="http://www.w3.org/2000/svg" xmlns:ns1="http://www.w3.org/1999/xlink" height="17.1855pt" version="1.1" viewBox="23.686 61.8237 54.5427 17.1855" width="54.5427pt" watch_lated_md:baseline="4.289399999999997" xmlns:watch_lated_md="https://github.com/Quansight/pearu-sandbox/latex_in_markdown/">
<ns0:defs>
<ns0:path d="m3.35701 0.0688618c0 -0.998496 -0.327093 -1.73876 -1.03293 -1.73876c-0.550894 0 -0.826341 0.447601 -0.826341 0.826341s0.258232 0.843557 0.843557 0.843557c0.223801 0 0.413171 -0.0688618 0.56811 -0.223801c0.0344309 -0.0344309 0.0516463 -0.0344309 0.0688618 -0.0344309c0.0344309 0 0.0344309 0.241016 0.0344309 0.327093c0 0.56811 -0.103293 1.68711 -1.10179 2.80612c-0.18937 0.206585 -0.18937 0.241016 -0.18937 0.275447c0 0.0860772 0.0860772 0.172154 0.172154 0.172154c0.137724 0 1.46331 -1.27394 1.46331 -3.25372z" id="g0-59" />
<ns0:path d="m8.16012 -7.0239c-0.550894 0.103293 -0.757479 0.516463 -0.757479 0.843557c0 0.413171 0.327093 0.550894 0.56811 0.550894c0.516463 0 0.877987 -0.447601 0.877987 -0.912418c0 -0.723049 -0.826341 -1.05014 -1.54939 -1.05014c-1.05014 0 -1.63547 1.03293 -1.79041 1.36002c-0.395955 -1.29116 -1.46331 -1.36002 -1.77319 -1.36002c-1.75597 0 -2.68561 2.25522 -2.68561 2.63396c0 0.0688618 0.0688618 0.154939 0.18937 0.154939c0.137724 0 0.172154 -0.103293 0.206585 -0.172154c0.585325 -1.91091 1.73876 -2.27244 2.23801 -2.27244c0.774695 0 0.929634 0.723049 0.929634 1.13622c0 0.37874 -0.103293 0.774695 -0.309878 1.60104l-0.585325 2.35852c-0.258232 1.03293 -0.757479 1.97978 -1.6699 1.97978c-0.0860772 0 -0.516463 0 -0.877987 -0.223801c0.619756 -0.120508 0.757479 -0.636971 0.757479 -0.843557c0 -0.344309 -0.258232 -0.550894 -0.585325 -0.550894c-0.413171 0 -0.860772 0.361524 -0.860772 0.912418c0 0.723049 0.809126 1.05014 1.54939 1.05014c0.826341 0 1.41167 -0.654187 1.77319 -1.36002c0.275447 1.01571 1.13622 1.36002 1.77319 1.36002c1.75597 0 2.68561 -2.25522 2.68561 -2.63396c0 -0.0860772 -0.0688618 -0.154939 -0.172154 -0.154939c-0.154939 0 -0.172154 0.0860772 -0.223801 0.223801c-0.464817 1.51496 -1.46331 2.22079 -2.23801 2.22079c-0.60254 0 -0.929634 -0.447601 -0.929634 -1.15343c0 -0.37874 0.0688618 -0.654187 0.344309 -1.79041l0.60254 -2.3413c0.258232 -1.03293 0.843557 -1.79041 1.63547 -1.79041c0.0344309 0 0.516463 0 0.877987 0.223801z" id="g0-120" />
<ns0:path d="m4.52766 1.92813c-0.464817 0.654187 -1.13622 1.23951 -1.97978 1.23951c-0.206585 0 -1.03293 -0.0344309 -1.29116 -0.826341c0.0516463 0.0172154 0.137724 0.0172154 0.172154 0.0172154c0.516463 0 0.860772 -0.447601 0.860772 -0.843557s-0.327093 -0.533679 -0.585325 -0.533679c-0.275447 0 -0.877987 0.206585 -0.877987 1.05014c0 0.877987 0.740264 1.48053 1.72154 1.48053c1.72154 0 3.4603 -1.58382 3.94234 -3.49473l1.68711 -6.71402c0.0172154 -0.0860772 0.0516463 -0.18937 0.0516463 -0.292662c0 -0.258232 -0.206585 -0.430386 -0.464817 -0.430386c-0.154939 0 -0.516463 0.0688618 -0.654187 0.585325l-1.27394 5.06134c-0.0860772 0.309878 -0.0860772 0.344309 -0.223801 0.533679c-0.344309 0.482032 -0.912418 1.06736 -1.73876 1.06736c-0.964065 0 -1.05014 -0.946849 -1.05014 -1.41167c0 -0.98128 0.464817 -2.30687 0.929634 -3.54638c0.18937 -0.499248 0.292662 -0.740264 0.292662 -1.08457c0 -0.723049 -0.516463 -1.37724 -1.36002 -1.37724c-1.58382 0 -2.22079 2.49624 -2.22079 2.63396c0 0.0688618 0.0688618 0.154939 0.18937 0.154939c0.154939 0 0.172154 -0.0688618 0.241016 -0.309878c0.413171 -1.4461 1.06736 -2.13471 1.73876 -2.13471c0.154939 0 0.447601 0 0.447601 0.56811c0 0.447601 -0.18937 0.946849 -0.447601 1.60104c-0.843557 2.25522 -0.843557 2.82333 -0.843557 3.2365c0 1.63547 1.17065 2.01421 2.03142 2.01421c0.499248 0 1.119 -0.154939 1.72154 -0.79191l0.0172154 0.0172154c-0.258232 1.01571 -0.430386 1.68711 -1.03293 2.53067z" id="g0-121" />
<ns0:path d="m5.26792 4.20057c0 -0.0172154 0 -0.0516463 -0.0516463 -0.103293c-0.79191 -0.809126 -2.90941 -3.0127 -2.90941 -8.38392s2.08307 -7.55758 2.92662 -8.41835c0 -0.0172154 0.0344309 -0.0516463 0.0344309 -0.103293s-0.0516463 -0.0860772 -0.120508 -0.0860772c-0.18937 0 -1.65268 1.27394 -2.49624 3.16764c-0.860772 1.91091 -1.10179 3.77018 -1.10179 5.42286c0 1.23951 0.120508 3.3398 1.15343 5.56059c0.826341 1.79041 2.23801 3.04713 2.44459 3.04713c0.0860772 0 0.120508 -0.0344309 0.120508 -0.103293z" id="g2-40" />
<ns0:path d="m4.52766 -4.28664c0 -1.23951 -0.120508 -3.3398 -1.15343 -5.56059c-0.826341 -1.79041 -2.23801 -3.04713 -2.44459 -3.04713c-0.0516463 0 -0.120508 0.0172154 -0.120508 0.103293c0 0.0344309 0.0172154 0.0516463 0.0344309 0.0860772c0.826341 0.860772 2.92662 3.04713 2.92662 8.40114c0 5.37122 -2.08307 7.55758 -2.92662 8.41835c-0.0172154 0.0344309 -0.0344309 0.0516463 -0.0344309 0.0860772c0 0.0860772 0.0688618 0.103293 0.120508 0.103293c0.18937 0 1.65268 -1.27394 2.49624 -3.16764c0.860772 -1.91091 1.10179 -3.77018 1.10179 -5.42286z" id="g2-41" />
<ns0:path d="m2.85776 -0.705833c0 -0.430386 -0.344309 -0.705833 -0.705833 -0.705833c-0.344309 0 -0.705833 0.275447 -0.705833 0.705833s0.344309 0.705833 0.705833 0.705833c0.344309 0 0.705833 -0.275447 0.705833 -0.705833z" id="g2-46" />
<ns0:path d="m5.35592 -3.82565c0 -0.992279 -0.0597758 -1.96065 -0.490162 -2.86924c-0.490162 -0.992279 -1.35093 -1.25529 -1.93674 -1.25529c-0.6934 0 -1.54222 0.3467 -1.98456 1.33898c-0.334745 0.753176 -0.454296 1.4944 -0.454296 2.78555c0 1.15965 0.0836862 2.03238 0.514072 2.8812c0.466252 0.908593 1.29116 1.19552 1.91283 1.19552c1.0401 0 1.63786 -0.621669 1.98456 -1.31507c0.430386 -0.896638 0.454296 -2.06824 0.454296 -2.76164zm-2.43885 3.83761c-0.382565 0 -1.15965 -0.215193 -1.3868 -1.51831c-0.131507 -0.71731 -0.131507 -1.6259 -0.131507 -2.46276c0 -0.980324 0 -1.86501 0.191283 -2.57036c0.203238 -0.800996 0.812951 -1.17161 1.32702 -1.17161c0.454296 0 1.1477 0.274969 1.37484 1.30311c0.155417 0.681445 0.155417 1.6259 0.155417 2.43885c0 0.800996 0 1.70959 -0.131507 2.43885c-0.227148 1.31507 -0.980324 1.54222 -1.39875 1.54222z" id="g1-48" />
</ns0:defs>
<ns0:g id="page1">
<ns0:use x="27.9837" ns1:href="#g2-40" y="74.7198" />
<ns0:use x="34.0802" ns1:href="#g0-120" y="74.7198" />
<ns0:use x="43.6592" ns1:href="#g1-48" y="77.3021" />
<ns0:use x="50.0103" ns1:href="#g0-59" y="74.7198" />
<ns0:use x="57.5619" ns1:href="#g0-121" y="74.7198" />
<ns0:use x="65.781" ns1:href="#g1-48" y="77.3021" />
<ns0:use x="72.1321" ns1:href="#g2-41" y="74.7198" />
</ns0:g>
</ns0:svg>

<ns0:svg xmlns:ns0="http://www.w3.org/2000/svg" xmlns:ns1="http://www.w3.org/1999/xlink" height="17.1855pt" version="1.1" viewBox="23.686 61.8237 54.5427 17.1855" width="54.5427pt" watch_lated_md:baseline="4.289399999999997" xmlns:watch_lated_md="https://github.com/Quansight/pearu-sandbox/latex_in_markdown/">
<ns0:defs>
<ns0:path d="M3.35701 0.0688618C3.35701 -0.929634 3.02992 -1.6699 2.32408 -1.6699C1.77319 -1.6699 1.49774 -1.2223 1.49774 -0.843557S1.75597 0 2.3413 0C2.5651 0 2.75447 -0.0688618 2.90941 -0.223801C2.94384 -0.258232 2.96106 -0.258232 2.97827 -0.258232C3.0127 -0.258232 3.0127 -0.0172154 3.0127 0.0688618C3.0127 0.636971 2.90941 1.75597 1.91091 2.87498C1.72154 3.08156 1.72154 3.11599 1.72154 3.15043C1.72154 3.2365 1.80762 3.32258 1.8937 3.32258C2.03142 3.32258 3.35701 2.04864 3.35701 0.0688618Z" id="g0-59" />
<ns0:path d="M8.16012 -7.0239C7.60922 -6.92061 7.40264 -6.50744 7.40264 -6.18034C7.40264 -5.76717 7.72973 -5.62945 7.97075 -5.62945C8.48721 -5.62945 8.84874 -6.07705 8.84874 -6.54187C8.84874 -7.26492 8.0224 -7.59201 7.29935 -7.59201C6.24921 -7.59201 5.66388 -6.55908 5.50894 -6.23199C5.11299 -7.52315 4.04563 -7.59201 3.73575 -7.59201C1.97978 -7.59201 1.05014 -5.33679 1.05014 -4.95805C1.05014 -4.88919 1.119 -4.80311 1.23951 -4.80311C1.37724 -4.80311 1.41167 -4.9064 1.4461 -4.97526C2.03142 -6.88618 3.18486 -7.2477 3.6841 -7.2477C4.4588 -7.2477 4.61374 -6.52465 4.61374 -6.11148C4.61374 -5.73274 4.51045 -5.33679 4.30386 -4.51045L3.71854 -2.15193C3.4603 -1.119 2.96106 -0.172154 2.04864 -0.172154C1.96256 -0.172154 1.53217 -0.172154 1.17065 -0.395955C1.79041 -0.516463 1.92813 -1.03293 1.92813 -1.23951C1.92813 -1.58382 1.6699 -1.79041 1.3428 -1.79041C0.929634 -1.79041 0.482032 -1.42888 0.482032 -0.877987C0.482032 -0.154939 1.29116 0.172154 2.03142 0.172154C2.85776 0.172154 3.44309 -0.482032 3.80461 -1.18787C4.08006 -0.172154 4.94083 0.172154 5.5778 0.172154C7.33378 0.172154 8.26341 -2.08307 8.26341 -2.46181C8.26341 -2.54789 8.19455 -2.61675 8.09126 -2.61675C7.93632 -2.61675 7.9191 -2.53067 7.86746 -2.39295C7.40264 -0.877987 6.40414 -0.172154 5.62945 -0.172154C5.02691 -0.172154 4.69982 -0.619756 4.69982 -1.32559C4.69982 -1.70433 4.76868 -1.97978 5.04412 -3.11599L5.64666 -5.45729C5.9049 -6.49022 6.49022 -7.2477 7.28213 -7.2477C7.31656 -7.2477 7.79859 -7.2477 8.16012 -7.0239Z" id="g0-120" />
<ns0:path d="M4.52766 1.92813C4.06284 2.58232 3.39144 3.16764 2.54789 3.16764C2.3413 3.16764 1.51496 3.13321 1.25673 2.3413C1.30837 2.35852 1.39445 2.35852 1.42888 2.35852C1.94534 2.35852 2.28965 1.91091 2.28965 1.51496S1.96256 0.98128 1.70433 0.98128C1.42888 0.98128 0.826341 1.18787 0.826341 2.03142C0.826341 2.90941 1.56661 3.51195 2.54789 3.51195C4.26943 3.51195 6.00819 1.92813 6.49022 0.0172154L8.17733 -6.69681C8.19455 -6.78288 8.22898 -6.88618 8.22898 -6.98947C8.22898 -7.2477 8.0224 -7.41986 7.76416 -7.41986C7.60922 -7.41986 7.2477 -7.35099 7.10998 -6.83453L5.83603 -1.77319C5.74996 -1.46331 5.74996 -1.42888 5.61223 -1.23951C5.26792 -0.757479 4.69982 -0.172154 3.87347 -0.172154C2.90941 -0.172154 2.82333 -1.119 2.82333 -1.58382C2.82333 -2.5651 3.28815 -3.89069 3.75297 -5.1302C3.94234 -5.62945 4.04563 -5.87047 4.04563 -6.21477C4.04563 -6.93782 3.52917 -7.59201 2.68561 -7.59201C1.10179 -7.59201 0.464817 -5.09577 0.464817 -4.95805C0.464817 -4.88919 0.533679 -4.80311 0.654187 -4.80311C0.809126 -4.80311 0.826341 -4.87197 0.895203 -5.11299C1.30837 -6.55908 1.96256 -7.2477 2.63396 -7.2477C2.7889 -7.2477 3.08156 -7.2477 3.08156 -6.67959C3.08156 -6.23199 2.89219 -5.73274 2.63396 -5.07856C1.79041 -2.82333 1.79041 -2.25522 1.79041 -1.84205C1.79041 -0.206585 2.96106 0.172154 3.82183 0.172154C4.32108 0.172154 4.94083 0.0172154 5.54337 -0.619756L5.56059 -0.60254C5.30236 0.413171 5.1302 1.08457 4.52766 1.92813Z" id="g0-121" />
<ns0:path d="M5.26792 4.20057C5.26792 4.18335 5.26792 4.14892 5.21628 4.09727C4.42437 3.28815 2.30687 1.08457 2.30687 -4.28664S4.38994 -11.8442 5.23349 -12.705C5.23349 -12.7222 5.26792 -12.7566 5.26792 -12.8083S5.21628 -12.8944 5.14742 -12.8944C4.95805 -12.8944 3.49473 -11.6204 2.65118 -9.72672C1.79041 -7.81581 1.54939 -5.95654 1.54939 -4.30386C1.54939 -3.06435 1.6699 -0.964065 2.70282 1.25673C3.52917 3.04713 4.94083 4.30386 5.14742 4.30386C5.23349 4.30386 5.26792 4.26943 5.26792 4.20057Z" id="g2-40" />
<ns0:path d="M4.52766 -4.28664C4.52766 -5.52616 4.40715 -7.62644 3.37423 -9.84723C2.54789 -11.6376 1.13622 -12.8944 0.929634 -12.8944C0.877987 -12.8944 0.809126 -12.8771 0.809126 -12.7911C0.809126 -12.7566 0.826341 -12.7394 0.843557 -12.705C1.6699 -11.8442 3.77018 -9.65786 3.77018 -4.30386C3.77018 1.06736 1.68711 3.25372 0.843557 4.11449C0.826341 4.14892 0.809126 4.16614 0.809126 4.20057C0.809126 4.28664 0.877987 4.30386 0.929634 4.30386C1.119 4.30386 2.58232 3.02992 3.42587 1.13622C4.28664 -0.774695 4.52766 -2.63396 4.52766 -4.28664Z" id="g2-41" />
<ns0:path d="M2.85776 -0.705833C2.85776 -1.13622 2.51345 -1.41167 2.15193 -1.41167C1.80762 -1.41167 1.4461 -1.13622 1.4461 -0.705833S1.79041 0 2.15193 0C2.49624 0 2.85776 -0.275447 2.85776 -0.705833Z" id="g2-46" />
<ns0:path d="M5.35592 -3.82565C5.35592 -4.81793 5.29614 -5.7863 4.86575 -6.69489C4.37559 -7.68717 3.51482 -7.95019 2.92902 -7.95019C2.23562 -7.95019 1.3868 -7.60349 0.944458 -6.61121C0.609714 -5.85803 0.490162 -5.11681 0.490162 -3.82565C0.490162 -2.666 0.573848 -1.79328 1.00423 -0.944458C1.47049 -0.0358655 2.29539 0.251059 2.91706 0.251059C3.95716 0.251059 4.55492 -0.37061 4.90162 -1.06401C5.332 -1.96065 5.35592 -3.13225 5.35592 -3.82565ZM2.91706 0.0119552C2.5345 0.0119552 1.75741 -0.203238 1.53026 -1.50635C1.39875 -2.22366 1.39875 -3.13225 1.39875 -3.96912C1.39875 -4.94944 1.39875 -5.83412 1.59004 -6.53948C1.79328 -7.34047 2.40299 -7.71108 2.91706 -7.71108C3.37136 -7.71108 4.06476 -7.43611 4.29191 -6.40797C4.44732 -5.72653 4.44732 -4.78207 4.44732 -3.96912C4.44732 -3.16812 4.44732 -2.25953 4.31582 -1.53026C4.08867 -0.215193 3.33549 0.0119552 2.91706 0.0119552Z" id="g1-48" />
</ns0:defs>
<ns0:g id="page1">
<ns0:use x="27.9837" ns1:href="#g2-40" y="74.7198" />
<ns0:use x="34.0802" ns1:href="#g0-120" y="74.7198" />
<ns0:use x="43.6592" ns1:href="#g1-48" y="77.3021" />
<ns0:use x="50.0103" ns1:href="#g0-59" y="74.7198" />
<ns0:use x="57.5619" ns1:href="#g0-121" y="74.7198" />
<ns0:use x="65.781" ns1:href="#g1-48" y="77.3021" />
<ns0:use x="72.1321" ns1:href="#g2-41" y="74.7198" />
</ns0:g>
</ns0:svg>
